src/icons/price.svg

<svg width="100" height="100" xmlns="http://www.w3.org/2000/svg">
  <g fill="#F37639" fill-rule="nonzero">
    <path d="M49.998.001C22.43.001 0 22.43 0 50c0 13.355 5.201 25.91 14.645 35.355a2.118 2.118 0 1 0 2.996-2.997C8.998 73.715 4.239 62.224 4.239 50c0-25.233 20.529-45.763 45.759-45.763 25.235 0 45.765 20.53 45.765 45.763 0 25.233-20.53 45.761-45.765 45.761a2.118 2.118 0 1 0 0 4.238C77.57 99.999 100 77.57 100 50 100 22.43 77.57.001 49.998.001z"/>
    <path d="M47.88 78.512a2.12 2.12 0 0 0 4.239 0v-5.931c6.548-1.025 11.577-6.687 11.577-13.516 0-7.559-5.161-12.803-13.475-13.686-4.89-.519-7.167-2.73-7.167-6.957 0-3.83 3.115-6.945 6.943-6.945 3.831 0 6.947 3.116 6.947 6.945a2.118 2.118 0 1 0 4.237 0c0-5.441-3.907-9.982-9.063-10.976v-5.957a2.12 2.12 0 0 0-4.239 0v5.956c-5.154.994-9.062 5.535-9.062 10.977 0 3.131.929 5.693 2.763 7.619 1.883 1.981 4.64 3.174 8.195 3.553 6.154.651 9.684 4.105 9.684 9.471 0 5.215-4.244 9.459-9.461 9.459-5.215 0-9.458-4.244-9.458-9.459a2.12 2.12 0 1 0-4.239 0c0 6.83 5.032 12.492 11.579 13.517v5.93z"/>
  </g>
</svg>

<?xml version="1.0" encoding="UTF-8"?>
<svg width="100px" height="100px" viewBox="0 0 100 100" version="1.1" xmlns="http://www.w3.org/2000/svg" xmlns:xlink="http://www.w3.org/1999/xlink">
    <!-- Generator: Sketch 48.2 (47327) - http://www.bohemiancoding.com/sketch -->
    <title>price</title>
    <desc>Created with Sketch.</desc>
    <defs></defs>
    <g id="Page-1" stroke="none" stroke-width="1" fill="none" fill-rule="evenodd">
        <g id="price" fill="#F37639" fill-rule="nonzero">
            <path d="M49.998,0.001 C22.43,0.001 0,22.43 0,50 C0,63.355 5.201,75.91 14.645,85.355 C15.473,86.183 16.814,86.183 17.641,85.355 C18.469,84.528 18.469,83.187 17.641,82.358 C8.998,73.715 4.239,62.224 4.239,50 C4.239,24.767 24.768,4.237 49.998,4.237 C75.233,4.237 95.763,24.767 95.763,50 C95.763,75.233 75.233,95.761 49.998,95.761 C48.83,95.761 47.88,96.71 47.88,97.883 C47.88,99.052 48.83,99.999 49.998,99.999 C77.57,99.999 100,77.57 100,50 C100,22.43 77.57,0.001 49.998,0.001 Z" id="Shape"></path>
            <path d="M47.88,78.512 C47.88,79.683 48.83,80.631 49.998,80.631 C51.17,80.631 52.119,79.683 52.119,78.512 L52.119,72.581 C58.667,71.556 63.696,65.894 63.696,59.065 C63.696,51.506 58.535,46.262 50.221,45.379 C45.331,44.86 43.054,42.649 43.054,38.422 C43.054,34.592 46.169,31.477 49.997,31.477 C53.828,31.477 56.944,34.593 56.944,38.422 C56.944,39.592 57.891,40.541 59.062,40.541 C60.233,40.541 61.181,39.592 61.181,38.422 C61.181,32.981 57.274,28.44 52.118,27.446 L52.118,21.489 C52.118,20.318 51.169,19.37 49.997,19.37 C48.829,19.37 47.879,20.318 47.879,21.489 L47.879,27.445 C42.725,28.439 38.817,32.98 38.817,38.422 C38.817,41.553 39.746,44.115 41.58,46.041 C43.463,48.022 46.22,49.215 49.775,49.594 C55.929,50.245 59.459,53.699 59.459,59.065 C59.459,64.28 55.215,68.524 49.998,68.524 C44.783,68.524 40.54,64.28 40.54,59.065 C40.54,57.895 39.592,56.947 38.421,56.947 C37.251,56.947 36.301,57.895 36.301,59.065 C36.301,65.895 41.333,71.557 47.88,72.582 L47.88,78.512 Z" id="Shape"></path>
        </g>
    </g>
</svg>
